X:1
T:Title
%%score { ( 1 4 ) | ( 2 3 ) }
L:1/8
Q:1/4=110
M:2/2
K:Ab
V:1 bass nm="Grand Piano"
V:4 bass 
V:2 bass 
V:3 bass 
V:1
 [A,CE]4 [F,_C=D]2[K:treble] [=CE]2 | [DF]4 [CE]4 | F2 A2 [EG]2 [DF]2 | [CE]8 | [CA]4 E2 A2 | %5
w: F.~S.~Shepard * *|||||
 B4 E4 | B4[K:bass] E4[K:treble] | [Ec]8 | [CE]4[K:bass] [F,_C=D]2 [=CE]2 | [DF]4 [CE]4 | %10
w: |||||
 F2 A2 [EG]2 [DF]2 | [CE]8 | [Ec]4 [EB]2 [_GA]2 | [FA]4 F4 | z4 E4 | [A,CE]8 |] %16
w: ||||||
V:2
 A,,4 z2 E,2 | [A,,A,]4 [A,,A,]4 | D2 F2 [D,A,]4 | [A,,A,]8 | [A,,A,]4 [A,,A,]4 | %5
 [E,G,E]4 [E,G,]4 | .[E,G,E]4 [C,A,]2 [B,,G,]2 | [A,,A,]8 | [A,,A,]4 z2 E,2 | [A,,A,]4 [A,,A,]4 | %10
 D2 F2 [D,A,]4 | [A,,A,]8 | [A,,A,]4 [B,,G,]2 [C,A,]2 | [D,A,]4 [D,A,D]4 | [E,A,C]4 [G,B,]2 B,2 | %15
 A,,8 |] %16
V:3
 z4 A,,4 | x8 | [D,A,]4 z4 | x8 | x8 | x8 | x8 | x8 | z4 A,,4 | x8 | [D,A,]4 z4 | x8 | x8 | x8 | %14
 z4 E,4 | x8 |] %16
V:4
 x6[K:treble] x2 | x8 | x8 | x8 | z4 C4 | x8 | z2[K:bass] D,2 z2[K:treble] d2 | x8 | %8
 x4[K:bass] x4 | x8 | x8 | x8 | x8 | x8 | E4 z2 D2 | x8 |] %16

